app/img/LOGO.svg

<svg width="75" height="23" viewBox="0 0 75 23" fill="none" xmlns="http://www.w3.org/2000/svg">
<path d="M5.1543 18.0449H14.1045V22H0.0126953V0.671875H5.1543V18.0449ZM33.3965 11.7754C33.3965 13.8555 33.0107 15.6963 32.2393 17.2979C31.4678 18.8994 30.3691 20.1348 28.9434 21.0039C27.5273 21.8633 25.9111 22.293 24.0947 22.293C22.2783 22.293 20.667 21.8779 19.2607 21.0479C17.8545 20.208 16.7559 19.0117 15.9648 17.459C15.1836 15.9062 14.7734 14.124 14.7344 12.1123V10.9111C14.7344 8.82129 15.1152 6.98047 15.877 5.38867C16.6484 3.78711 17.7471 2.55176 19.1729 1.68262C20.6084 0.813477 22.2393 0.378906 24.0654 0.378906C25.8721 0.378906 27.4834 0.808594 28.8994 1.66797C30.3154 2.52734 31.4141 3.75293 32.1953 5.34473C32.9863 6.92676 33.3867 8.74316 33.3965 10.7939V11.7754ZM28.167 10.8818C28.167 8.7627 27.8105 7.15625 27.0977 6.0625C26.3945 4.95898 25.3838 4.40723 24.0654 4.40723C21.4873 4.40723 20.125 6.34082 19.9785 10.208L19.9639 11.7754C19.9639 13.8652 20.3105 15.4717 21.0039 16.5947C21.6973 17.7178 22.7275 18.2793 24.0947 18.2793C25.3936 18.2793 26.3945 17.7275 27.0977 16.624C27.8008 15.5205 28.1572 13.9336 28.167 11.8633V10.8818ZM53.5088 19.3633C52.7178 20.2422 51.5605 20.9502 50.0371 21.4873C48.5137 22.0244 46.8438 22.293 45.0273 22.293C42.2344 22.293 40.0029 21.4385 38.333 19.7295C36.6631 18.0205 35.7695 15.6426 35.6523 12.5957L35.6377 10.75C35.6377 8.65039 36.0088 6.81934 36.751 5.25684C37.4932 3.68457 38.5527 2.47852 39.9297 1.63867C41.3164 0.789062 42.918 0.364258 44.7344 0.364258C47.3906 0.364258 49.4512 0.974609 50.916 2.19531C52.3906 3.40625 53.25 5.21777 53.4941 7.62988H48.543C48.3672 6.43848 47.9863 5.58887 47.4004 5.08105C46.8145 4.57324 45.9844 4.31934 44.9102 4.31934C43.6211 4.31934 42.625 4.86621 41.9219 5.95996C41.2188 7.05371 40.8623 8.61621 40.8525 10.6475V11.9365C40.8525 14.0654 41.2139 15.667 41.9365 16.7412C42.6689 17.8057 43.8164 18.3379 45.3789 18.3379C46.7168 18.3379 47.7129 18.04 48.3672 17.4443V14.1338H44.793V10.6035H53.5088V19.3633ZM74.5586 11.7754C74.5586 13.8555 74.1729 15.6963 73.4014 17.2979C72.6299 18.8994 71.5312 20.1348 70.1055 21.0039C68.6895 21.8633 67.0732 22.293 65.2568 22.293C63.4404 22.293 61.8291 21.8779 60.4229 21.0479C59.0166 20.208 57.918 19.0117 57.127 17.459C56.3457 15.9062 55.9355 14.124 55.8965 12.1123V10.9111C55.8965 8.82129 56.2773 6.98047 57.0391 5.38867C57.8105 3.78711 58.9092 2.55176 60.335 1.68262C61.7705 0.813477 63.4014 0.378906 65.2275 0.378906C67.0342 0.378906 68.6455 0.808594 70.0615 1.66797C71.4775 2.52734 72.5762 3.75293 73.3574 5.34473C74.1484 6.92676 74.5488 8.74316 74.5586 10.7939V11.7754ZM69.3291 10.8818C69.3291 8.7627 68.9727 7.15625 68.2598 6.0625C67.5566 4.95898 66.5459 4.40723 65.2275 4.40723C62.6494 4.40723 61.2871 6.34082 61.1406 10.208L61.126 11.7754C61.126 13.8652 61.4727 15.4717 62.166 16.5947C62.8594 17.7178 63.8896 18.2793 65.2568 18.2793C66.5557 18.2793 67.5566 17.7275 68.2598 16.624C68.9629 15.5205 69.3193 13.9336 69.3291 11.8633V10.8818Z" fill="white"/>
</svg>

<svg width="75" height="23" fill="none" xmlns="http://www.w3.org/2000/svg"><path d="M5.154 18.045h8.95V22H.013V.672h5.141v17.373zm28.243-6.27c0 2.08-.386 3.921-1.158 5.523-.771 1.601-1.87 2.837-3.296 3.706-1.416.86-3.032 1.289-4.848 1.289-1.817 0-3.428-.415-4.834-1.245-1.406-.84-2.505-2.036-3.296-3.589-.781-1.553-1.192-3.335-1.23-5.347v-1.2c0-2.09.38-3.932 1.142-5.523.771-1.602 1.87-2.837 3.296-3.706C20.608.813 22.239.379 24.065.379c1.807 0 3.418.43 4.834 1.289 1.416.86 2.515 2.085 3.296 3.677.791 1.582 1.192 3.398 1.202 5.449v.981zm-5.23-.893c0-2.12-.357-3.726-1.07-4.82-.703-1.103-1.713-1.655-3.032-1.655-2.578 0-3.94 1.934-4.087 5.801l-.014 1.567c0 2.09.347 3.697 1.04 4.82.693 1.123 1.723 1.684 3.09 1.684 1.3 0 2.3-.552 3.004-1.655.703-1.103 1.06-2.69 1.069-4.76v-.982zm25.342 8.481c-.791.88-1.949 1.587-3.472 2.124-1.523.537-3.193.806-5.01.806-2.793 0-5.024-.854-6.694-2.563-1.67-1.71-2.563-4.087-2.68-7.134l-.015-1.846c0-2.1.37-3.93 1.113-5.493.742-1.572 1.802-2.778 3.179-3.618C41.316.789 42.918.364 44.734.364c2.657 0 4.717.61 6.182 1.831 1.475 1.211 2.334 3.023 2.578 5.435h-4.951c-.176-1.192-.557-2.041-1.143-2.549-.585-.508-1.416-.762-2.49-.762-1.289 0-2.285.547-2.988 1.641-.703 1.094-1.06 2.656-1.07 4.688v1.289c0 2.128.362 3.73 1.085 4.804.732 1.065 1.88 1.597 3.442 1.597 1.338 0 2.334-.298 2.988-.894v-3.31h-3.574v-3.53h8.716v8.76zm21.05-7.588c0 2.08-.386 3.921-1.158 5.523-.771 1.601-1.87 2.837-3.295 3.706-1.416.86-3.033 1.289-4.85 1.289-1.816 0-3.427-.415-4.833-1.245-1.406-.84-2.505-2.036-3.296-3.589-.781-1.553-1.192-3.335-1.23-5.347v-1.2c0-2.09.38-3.932 1.142-5.523.771-1.602 1.87-2.837 3.296-3.706C61.77.813 63.401.379 65.228.379c1.806 0 3.418.43 4.834 1.289 1.416.86 2.514 2.085 3.295 3.677.791 1.582 1.192 3.398 1.202 5.449v.981zm-5.23-.893c0-2.12-.356-3.726-1.07-4.82-.702-1.103-1.713-1.655-3.031-1.655-2.579 0-3.94 1.934-4.087 5.801l-.015 1.567c0 2.09.347 3.697 1.04 4.82.693 1.123 1.724 1.684 3.09 1.684 1.3 0 2.3-.552 3.004-1.655.703-1.103 1.06-2.69 1.07-4.76v-.982z" fill="#fff"/></svg>
